gama.ui.shared/icons_svg/light/layer/layer.graphics.svg

<svg height="24.75" viewBox="-830.056 -4077.701 24.75 24.75" width="24.75" xmlns="http://www.w3.org/2000/svg"><g fill="none"><path d="m-825.8407-4077.326h16.32c2.1208 0 3.84 1.7193 3.84 3.84v16.32c0 2.121-1.7192 3.84-3.84 3.84h-16.32c-2.1207 0-3.84-1.719-3.84-3.84v-16.32c0-2.1207 1.7193-3.84 3.84-3.84z" fill="#66727e"/><path d="m-814.0443-4070.365v7.476l1.0909 1.099 1.0909-1.099v-7.476zm0-.727h2.1818v-1.444h-2.1818zm2.9091 1.4543v6.8984c0 .096-.038.1883-.1056.2563l-1.4545 1.465c-.14225.1434-.3739.1434-.5162 0l-1.4545-1.465c-.0676-.068-.1056-.1603-.1056-.2563v-1.8075h-.3636c-.6025 0-1.0909-.4882-1.0909-1.0909v-2.1818c0-.6025.4884-1.0909 1.0909-1.0909h.3636v-.7273h-7.2727v5.4547c0 .2007-.1628.3635-.3637.3635h-.3636c-1.205 0-2.1818.9769-2.1818 2.1818 0 1.205.9768 2.1817 2.1818 2.1817h12.3637v-10.1817zm0-.7273h1.0909c.2008 0 .3636.163.3636.3637v10.9093c0 .2006-.1628.3634-.3636.3634h-12.7273c-1.6067 0-2.9091-1.3024-2.9091-2.9091v-8.3636c0-1.8077 1.4652-3.2727 3.2727-3.2727.2009 0 .3637.1628.3637.3636v2.5454h7.2727v-2.5347c0-.2008.1628-.3636.36365-.3636h2.9091c.20085 0 .36365.1628.36365.3636zm-3.6364 2.182h-.3636c-.2009 0-.3637.1627-.3637.3635v2.1818c0 .2007.1628.3637.3637.3637h.3636zm-10.1818 4.621c.533-.604 1.3129-.9848 2.1818-.9848v-7.9742c-1.2336.1764-2.1818 1.2373-2.1818 2.5197zm4.7273-5.3484h2.1818c.6025 0 1.0909.4884 1.0909 1.0909v2.1818c0 .6027-.4884 1.0909-1.0909 1.0909h-2.1818c-.6025 0-1.091-.4882-1.091-1.0909v-2.1818c0-.6025.4885-1.0909 1.091-1.0909zm0 .7274c-.2009 0-.3637.1627-.3637.3635v2.1818c0 .2007.1628.3637.3637.3637h2.1818c.2008 0 .3636-.163.3636-.3637v-2.1818c0-.2008-.1628-.3635-.3636-.3635zm-.7273 5.818c-.2009 0-.3637-.1627-.3637-.3636 0-.2008.1628-.3634.3637-.3634h5.0909c.2008 0 .3636.1626.3636.3634 0 .2009-.1628.3636-.3636.3636zm0 1.4546c-.2009 0-.3637-.1626-.3637-.3636s.1628-.3637.3637-.3637h5.8182c.2008 0 .3636.1627.3636.3637s-.1628.3636-.3636.3636z" fill="#fff"/></g></svg>

<?xml version="1.0" encoding="UTF-8" standalone="no"?>
<!DOCTYPE svg PUBLIC "-//W3C//DTD SVG 1.1//EN" "http://www.w3.org/Graphics/SVG/1.1/DTD/svg11.dtd">
<svg version="1.1" xmlns="http://www.w3.org/2000/svg" xmlns:xl="http://www.w3.org/1999/xlink" xmlns:dc="http://purl.org/dc/elements/1.1/" viewBox="-830.0557 -4077.701 24.75 24.75" width="24.75" height="24.75">
  <defs/>
  <g id="SOURCES" stroke-dasharray="none" fill="none" stroke="none" fill-opacity="1" stroke-opacity="1">
    <title>SOURCES</title>
    <g id="SOURCES_Calque_2">
      <title>Calque 2</title>
      <g id="Graphic_8759">
        <title>views/view.other</title>
        <path d="M -825.8407 -4077.326 L -809.5207 -4077.326 C -807.3999 -4077.326 -805.6807 -4075.6067 -805.6807 -4073.486 L -805.6807 -4057.166 C -805.6807 -4055.045 -807.3999 -4053.326 -809.5207 -4053.326 L -825.8407 -4053.326 C -827.9614 -4053.326 -829.6807 -4055.045 -829.6807 -4057.166 L -829.6807 -4073.486 C -829.6807 -4075.6067 -827.9614 -4077.326 -825.8407 -4077.326 Z" fill="#66727e"/>
      </g>
      <g id="Graphic_8758">
        <path d="M -814.0443 -4070.365 L -814.0443 -4062.889 L -812.9534 -4061.79 L -811.8625 -4062.889 L -811.8625 -4070.365 Z M -814.0443 -4071.092 L -811.8625 -4071.092 L -811.8625 -4072.536 L -814.0443 -4072.536 Z M -811.1352 -4069.6377 L -811.1352 -4062.7393 C -811.1352 -4062.6433 -811.1732 -4062.551 -811.2408 -4062.483 L -812.6953 -4061.018 C -812.83755 -4060.8746 -813.0692 -4060.8746 -813.2115 -4061.018 L -814.666 -4062.483 C -814.7336 -4062.551 -814.7716 -4062.6433 -814.7716 -4062.7393 L -814.7716 -4064.5468 L -815.1352 -4064.5468 C -815.7377 -4064.5468 -816.2261 -4065.035 -816.2261 -4065.6377 L -816.2261 -4067.8195 C -816.2261 -4068.422 -815.7377 -4068.9104 -815.1352 -4068.9104 L -814.7716 -4068.9104 L -814.7716 -4069.6377 L -822.0443 -4069.6377 L -822.0443 -4064.183 C -822.0443 -4063.9823 -822.2071 -4063.8195 -822.408 -4063.8195 L -822.7716 -4063.8195 C -823.9766 -4063.8195 -824.9534 -4062.8426 -824.9534 -4061.6377 C -824.9534 -4060.4327 -823.9766 -4059.456 -822.7716 -4059.456 L -810.4079 -4059.456 L -810.4079 -4069.6377 Z M -811.1352 -4070.365 L -810.0443 -4070.365 C -809.8435 -4070.365 -809.6807 -4070.202 -809.6807 -4070.0013 L -809.6807 -4059.092 C -809.6807 -4058.8914 -809.8435 -4058.7286 -810.0443 -4058.7286 L -822.7716 -4058.7286 C -824.3783 -4058.7286 -825.6807 -4060.031 -825.6807 -4061.6377 L -825.6807 -4070.0013 C -825.6807 -4071.809 -824.2155 -4073.274 -822.408 -4073.274 C -822.2071 -4073.274 -822.0443 -4073.1112 -822.0443 -4072.9104 L -822.0443 -4070.365 L -814.7716 -4070.365 L -814.7716 -4072.8997 C -814.7716 -4073.1005 -814.6088 -4073.2633 -814.40795 -4073.2633 L -811.49885 -4073.2633 C -811.298 -4073.2633 -811.1352 -4073.1005 -811.1352 -4072.8997 Z M -814.7716 -4068.183 L -815.1352 -4068.183 C -815.3361 -4068.183 -815.4989 -4068.0203 -815.4989 -4067.8195 L -815.4989 -4065.6377 C -815.4989 -4065.437 -815.3361 -4065.274 -815.1352 -4065.274 L -814.7716 -4065.274 Z M -824.9534 -4063.562 C -824.4204 -4064.166 -823.6405 -4064.5468 -822.7716 -4064.5468 L -822.7716 -4072.521 C -824.0052 -4072.3446 -824.9534 -4071.2837 -824.9534 -4070.0013 L -824.9534 -4063.562 Z M -820.2261 -4068.9104 L -818.0443 -4068.9104 C -817.4418 -4068.9104 -816.9534 -4068.422 -816.9534 -4067.8195 L -816.9534 -4065.6377 C -816.9534 -4065.035 -817.4418 -4064.5468 -818.0443 -4064.5468 L -820.2261 -4064.5468 C -820.8286 -4064.5468 -821.3171 -4065.035 -821.3171 -4065.6377 L -821.3171 -4067.8195 C -821.3171 -4068.422 -820.8286 -4068.9104 -820.2261 -4068.9104 Z M -820.2261 -4068.183 C -820.427 -4068.183 -820.5898 -4068.0203 -820.5898 -4067.8195 L -820.5898 -4065.6377 C -820.5898 -4065.437 -820.427 -4065.274 -820.2261 -4065.274 L -818.0443 -4065.274 C -817.8435 -4065.274 -817.6807 -4065.437 -817.6807 -4065.6377 L -817.6807 -4067.8195 C -817.6807 -4068.0203 -817.8435 -4068.183 -818.0443 -4068.183 Z M -820.9534 -4062.365 C -821.1543 -4062.365 -821.3171 -4062.5277 -821.3171 -4062.7286 C -821.3171 -4062.9294 -821.1543 -4063.092 -820.9534 -4063.092 L -815.8625 -4063.092 C -815.6617 -4063.092 -815.4989 -4062.9294 -815.4989 -4062.7286 C -815.4989 -4062.5277 -815.6617 -4062.365 -815.8625 -4062.365 Z M -820.9534 -4060.9104 C -821.1543 -4060.9104 -821.3171 -4061.073 -821.3171 -4061.274 C -821.3171 -4061.475 -821.1543 -4061.6377 -820.9534 -4061.6377 L -815.1352 -4061.6377 C -814.9344 -4061.6377 -814.7716 -4061.475 -814.7716 -4061.274 C -814.7716 -4061.073 -814.9344 -4060.9104 -815.1352 -4060.9104 Z" fill="white"/>
      </g>
    </g>
  </g>
</svg>
